!!!OTL-incipit: WIR HABEN UNS BESONNEN
!!!ARE: Europa, Mitteleuropa, Deutschland
!!!SCT: Z0232
!!!TXL: @@DE
!!!YEM: Copyright 1995, estate of Helmut Schaffrath.
**kern	**text
*ICvox	*
*M3/4	*
*k[f#]	*
*G:	*
{8g	Wir
8b/	.
=1	=1
8.dd	ha-
16ee	-ben
4dd	uns
4cc	be-
=2	=2
(4.b	-ſon-
8cc)	.
4dd}	-nen,
=3	=3
{8dd	ha-
8dd	-ben
8ee	Fei-
8dd	-er-
8cc	-a-
8b	-bend
=4	=4
16bqq	.
4a	ge-
4f#	-nom-
4d}	-men,
=5	=5
{8dd	das
16dd	iſt
16ee	die
8dd	ſchö-
8cc	-ne
4b	Ʒeit,
=6	=6
8dd	die
8ee	uns
8dd	all'
8cc	er-
4b}	-freut,
=7	=7
{8a	in
8a	der
8a	gan-
8a	-ʒen
8g	Chri-
8a	-ſten-
=8	=8
(4cc	-heit.
4b)}	.
==	==
!!!AGN: Schiffer -, Handwerker - Lied
!! Reiselied
!!!ONB: ESAC (Essen Associative Code) Database: ZUCCAL
!!!AMT: simple triple
!!!AIN: vox
!!!EED: Helmut Schaffrath
!!!EEV: 1.0
!!!GTL: III. Soldaten-, Jaeger-, Schiffer-, Fuhrmanns- und Handwerks-Lieder.
!!!URL-scan: https://www.digitale-sammlungen.de/de/view/bsb11160571?page=431
!!!ENC: Anna Maria Matuszewska
!!!EEV: 2025/01/29
*-	*-
